X:351
T: KOMMT DIE NACHT MIT IHREM SCHATTEN
N: B0414
O: Europa, Mitteleuropa, Deutschland
R: Liebes - Lied, Liebes - Lust
M: 3/4
L: 1/16
K: F
c3d | c4B4B3c | B4A4
A3B | A6G2B2d2 | c8
c2f2 | e6d2c2B2 | d4c4
A2c2 | d6c2B2c2 | A8

@@@ Tune index: 2154
